X: 1
T: the Heights Of Cassino   [D]
C: by P/M Dan MacRae
R: jig
B: BSFC Session Tune Book 2016 p.58
B: BSFC Tune Book XXX-15
Z: 2019 John Chambers <jc:trillian.mit.edu>
M: 6/8
L: 1/8
K: Dmix
   e |\
"D"A>AA "G"B<de | "D"f2a f>ed | "A"e>ee e2d | "A"e<fe "G"d>BG |\
"D"A>AA "G"B<de | "D"f2a f>ed | "D"f>AA "A7"e<fe | "D"d3 d2 :|
|: f/g/ |\
"D"a>fd f3 | "D"f2a f>ed | "Em"e>ee e2d | "A"e<fe "G"d>BG |\
|[1 "D"a>fd f3 | "D"f2a f>ed | "D"f>AA "A7"e<fe | "D"d3 d2 :|
|[2 "D"A>AA "G"B<de | "D"f2a f>ed | "D"f>AA "A7"e<fe | "D"d3 d2 |: f |\
"D"A>AA "G"B>AG | "D"A>AA f3 | "D"f2a f>ed | "Bm"e<fe "G"d>BG |
"D"A>AA "G"B>AG | "D"A>AA f3 | "D"f>AA "A7"e<fe | "D"d3 d2 :: f/g/ |\
"D"a>fe d>ef | "D"A>AA f3 | "D"f2a f>ed | "Bm"e<fe "G"d>BG |
|[1 "D"a>fe d>ef | "D"A>AA f3 | "D"f>AA "A7"e<fe | d3 d2 :|\
|[2 "D"A>AA "G"B>AG | "D"A>AA f3 | "G"f>AA "A7"e<fe | "D"d3 d2 |]


